svgs/ewesticker.svg

<svg width="192" height="192" viewBox="0 0 192 192" fill="none" xmlns="http://www.w3.org/2000/svg">
<path d="M124.827 40.6154C122.317 38.3107 118.983 36.9062 115.325 36.9062C111.666 36.9062 108.331 38.3102 105.821 40.6154C103.237 37.2019 99.1659 35 94.586 35C90.0059 35 85.9344 37.2017 83.3503 40.6154C80.8397 38.3104 77.5055 36.9062 73.8471 36.9062C67.7208 36.9062 62.5049 40.8456 60.5411 46.3556C58.1966 44.6101 55.3004 43.5781 52.1656 43.5781C44.3562 43.5781 38.0255 49.9791 38.0255 57.875C38.0255 59.1991 38.2042 60.4809 38.5373 61.6977C38.3674 61.6916 38.1968 61.6875 38.0255 61.6875C30.2161 61.6875 23.8854 68.0884 23.8854 75.9844C23.8854 80.5724 26.0232 84.6551 29.3462 87.2711C24.9679 89.7009 22 94.4062 22 99.8125C22 106.101 26.016 111.441 31.5961 113.355C30.2922 115.519 29.5414 118.062 29.5414 120.781C29.5414 128.677 35.8722 135.078 43.6815 135.078C45.3492 135.078 46.9489 134.785 48.4345 134.249C48.979 141.642 55.084 147.469 62.535 147.469C65.7694 147.469 68.749 146.369 71.1314 144.522C72.015 151.559 77.9592 157 85.1592 157C89.7849 157 93.8915 154.754 96.4713 151.282C99.0511 154.754 103.158 157 107.783 157C113.131 157 117.783 153.998 120.186 149.571C122.774 152.932 126.812 155.094 131.35 155.094C138.925 155.094 145.108 149.072 145.473 141.504C147.21 142.274 149.128 142.703 151.146 142.703C158.956 142.703 165.287 136.302 165.287 128.406C165.287 125.567 164.468 122.922 163.057 120.697C167.213 118.208 170 113.629 170 108.391C170 105.172 168.948 102.202 167.173 99.8125M124.827 40.6154L167.173 99.8125M124.827 40.6154V93.8125C124.827 97.1262 127.513 99.8125 130.827 99.8125H167.173" stroke="black" stroke-width="12" stroke-linecap="round" stroke-linejoin="round"/>
</svg>

<svg xmlns="http://www.w3.org/2000/svg" width="192" height="192" fill="none" viewBox="0 0 192 192"><path stroke="#000" stroke-linecap="round" stroke-linejoin="round" stroke-width="12" d="M124.827 40.615a14 14 0 0 0-9.502-3.709 14 14 0 0 0-9.504 3.71C103.237 37.201 99.166 35 94.586 35s-8.652 2.202-11.236 5.615a14 14 0 0 0-9.503-3.709c-6.126 0-11.342 3.94-13.306 9.45a13.97 13.97 0 0 0-8.375-2.778c-7.81 0-14.14 6.401-14.14 14.297 0 1.324.178 2.606.511 3.823q-.255-.01-.511-.01c-7.81 0-14.14 6.4-14.14 14.296 0 4.588 2.137 8.671 5.46 11.287A14.32 14.32 0 0 0 22 99.813c0 6.288 4.016 11.628 9.596 13.542a14.35 14.35 0 0 0-2.055 7.426c0 7.896 6.331 14.297 14.14 14.297 1.668 0 3.268-.293 4.754-.829.544 7.393 6.649 13.22 14.1 13.22 3.234 0 6.214-1.1 8.596-2.947C72.015 151.559 77.96 157 85.16 157c4.626 0 8.732-2.246 11.312-5.718 2.58 3.472 6.687 5.718 11.312 5.718 5.348 0 10-3.002 12.403-7.429 2.588 3.361 6.626 5.523 11.164 5.523 7.575 0 13.758-6.022 14.123-13.59a14 14 0 0 0 5.673 1.199c7.81 0 14.141-6.401 14.141-14.297 0-2.839-.819-5.484-2.23-7.709A14.32 14.32 0 0 0 170 108.391a14.34 14.34 0 0 0-2.827-8.579m-42.346-59.197 42.346 59.198m-42.346-59.198v53.198a6 6 0 0 0 6 6h36.346"/></svg>
